X: 37
T:MacAllan
% Nottingham Music Database
S:J Scott Skinner
M:4/4
L:1/8
R:Hornpipe
K:A
D/2|C/2E3/2A3/2B/2 c/2B/2A/2G/2A3/2c/2|d3/2e/2f3/2e/2 d/2c/2B/2A/2G/2B3/2|
C/2E3/2A3/2B/2 c/2B/2A/2G/2A3/2a/2|f/2g/2a/2f/2ea cAA:|:
g/2|a3/2A/2c/2d/2e f3/2a/2e3/2a/2|d3/2a/2c3/2a/2 B3/2A/2G/2B3/2|\
A2/3B2/3c2/3 d2/3c2/3B2/3 c2/3d2/3e2/3a3/2g/2|f/2g/2ae3/2a/2 cAA:|



